.local/share/icons/Gruvbox-Plus-Dark/actions/16/fcitx-wubi.svg

<svg width="16" height="16" version="1.1" xmlns="http://www.w3.org/2000/svg">
  <defs>
    <style id="current-color-scheme" type="text/css">.ColorScheme-Text { color:#ebdbb2; } .ColorScheme-Highlight { color:#458588; }</style>
  </defs>
  <path class="ColorScheme-Text" d="m3 1c-1.108 0-2 0.892-2 2v10c0 1.108 0.892 2 2 2h10c1.108 0 2-0.892 2-2v-10c0-1.108-0.892-2-2-2h-10zm0 2h9v1h-4.098l-0.666 3h3.764v5h2v1h-10v-1h2.1l0.8887-4h-1.988v-1h2.211l0.666-3h-3.877v-1zm4.014 5-0.8906 4h3.877v-4h-2.986z" fill="currentColor"/>
</svg>

<svg xmlns="http://www.w3.org/2000/svg" width="16" height="16" version="1.1">
 <defs>
  <style id="current-color-scheme" type="text/css">
   .ColorScheme-Text { color:#ebdbb2; } .ColorScheme-Highlight { color:#458588; }
  </style>
 </defs>
 <path style="fill:currentColor" class="ColorScheme-Text" d="M 2,0 C 0.892,0 0,0.892 0,2 V 14 C 0,15.108 0.892,16 2,16 H 14 C 15.108,16 16,15.108 16,14 V 2 C 16,0.892 15.108,0 14,0 Z M 3,3 H 12 V 4 H 7.9023 L 7.2363,7 H 11 V 12 H 13 V 13 H 3 V 12 H 5.0996 L 5.9883,8 H 4 V 7 H 6.2109 L 6.877,4 H 3 Z M 7.0137,8 6.123,12 H 10 V 8 Z"/>
</svg>
